ix/home-wifi_bold.svg

<svg viewBox="0 0 24 24" fill="none" xmlns="http://www.w3.org/2000/svg" height="1em" width="1em">
  <path d="M20.8593 8.36985L13.9293 2.82985C12.8593 1.96985 11.1293 1.96985 10.0693 2.81985L3.13929 8.36985C2.35929 8.98985 1.85929 10.2998 2.02929 11.2798L3.35929 19.2398C3.59929 20.6598 4.95929 21.8098 6.39929 21.8098H17.5993C19.0293 21.8098 20.3993 20.6498 20.6393 19.2398L21.9693 11.2798C22.1293 10.2998 21.6293 8.98985 20.8593 8.36985ZM12.7093 17.1999C12.5093 17.3998 12.2593 17.4998 11.9993 17.4998C11.7393 17.4998 11.4893 17.3998 11.2893 17.2098C10.8993 16.8198 10.8993 16.1898 11.2893 15.7998C11.6793 15.4098 12.3193 15.4098 12.7093 15.7998C13.0993 16.1798 13.0993 16.8098 12.7093 17.1999ZM14.6593 14.8998C14.5093 15.0498 14.3193 15.1298 14.1193 15.1298C13.9293 15.1298 13.7493 15.0598 13.5993 14.9198C12.6293 13.9898 11.3693 13.9898 10.3893 14.9198C10.0893 15.2098 9.61929 15.1998 9.32929 14.8998C9.03929 14.5998 9.04929 14.1298 9.34929 13.8398C10.8993 12.3498 13.0693 12.3498 14.6293 13.8398C14.9393 14.1198 14.9493 14.5998 14.6593 14.8998ZM16.7793 12.7798C16.6293 12.9298 16.4393 13.0098 16.2393 13.0098C16.0493 13.0098 15.8593 12.9398 15.7193 12.7998C15.2493 12.3398 14.7193 11.9698 14.1593 11.6998C12.7593 11.0298 11.2293 11.0298 9.83929 11.6998C9.27929 11.9698 8.75929 12.3398 8.27929 12.7998C7.98929 13.0898 7.50929 13.0898 7.21929 12.7898C6.92929 12.4898 6.93929 12.0198 7.22929 11.7298C7.81929 11.1498 8.47929 10.6898 9.18929 10.3498C10.9993 9.47985 12.9993 9.47985 14.7993 10.3498C15.5093 10.6898 16.1693 11.1498 16.7593 11.7298C17.0593 12.0098 17.0693 12.4898 16.7793 12.7798Z" fill="#292D32"/>
</svg>

<svg viewBox="0 0 24 24" fill="none" xmlns="http://www.w3.org/2000/svg" height="1em" width="1em">
  <path d="m20.86 8.37-6.93-5.54c-1.07-.86-2.8-.86-3.86-.01L3.14 8.37c-.78.62-1.28 1.93-1.11 2.91l1.33 7.96c.24 1.42 1.6 2.57 3.04 2.57h11.2c1.43 0 2.8-1.16 3.04-2.57l1.33-7.96c.16-.98-.34-2.29-1.11-2.91Zm-8.15 8.83c-.2.2-.45.3-.71.3-.26 0-.51-.1-.71-.29a.996.996 0 0 1 0-1.41c.39-.39 1.03-.39 1.42 0 .39.38.39 1.01 0 1.4Zm1.95-2.3a.75.75 0 0 1-1.06.02c-.97-.93-2.23-.93-3.21 0-.3.29-.77.28-1.06-.02-.29-.3-.28-.77.02-1.06 1.55-1.49 3.72-1.49 5.28 0 .31.28.32.76.03 1.06Zm2.12-2.12c-.15.15-.34.23-.54.23-.19 0-.38-.07-.52-.21a5.9 5.9 0 0 0-1.56-1.1c-1.4-.67-2.93-.67-4.32 0-.56.27-1.08.64-1.56 1.1-.29.29-.77.29-1.06-.01-.29-.3-.28-.77.01-1.06.59-.58 1.25-1.04 1.96-1.38 1.81-.87 3.81-.87 5.61 0 .71.34 1.37.8 1.96 1.38.3.28.31.76.02 1.05Z" fill="#292D32"/>
</svg>
